;FLAVOR:Marlin
;TIME:3530
;Filament used: 3.47489m
;Layer height: 0.2
;MINX:110.419
;MINY:109.6
;MINZ:0.2
;MAXX:193.581
;MAXY:194.4
;MAXZ:33.4
;Generated with Cura_SteamEngine 4.7.1
M140 S60
M105
M190 S60
M104 S200
M105
M109 S200
M82 ;absolute extrusion mode
G21 ;metric values
G90 ;absolute positioning
M82 ;set extruder to absolute mode
M107 ;start with the fan off
G28 X0 Y0 ;move X/Y to min endstops
G28 Z0 ;move Z to min endstops
G1 Z15.0 F100 ;move the platform down 15mm
G92 E0 ;zero the extruded length
G1 F200 E3 ;extrude 3mm of feed stock
G92 E0 ;zero the extruded length again
G1 F100
G0 Y20 F100
M117 Printing...
G5
G92 E0
G92 E0
G1 F2400 E-6
;LAYER_COUNT:170
;LAYER:0
M106 S255
M204 S3000
M205 X10 Y10
G1 F600 Z0.275
G0 F3000 X112.352 Y115.435 Z0.275
M204 S1800
M205 X8 Y8
;TYPE:SKIRT
G1 F600 Z0.2
G1 F2400 E0
G1 X112.89 Y114.964 E0.0333
G1 X113.478 Y114.556 E0.06662
G1 X114.107 Y114.216 E0.09991
G1 X114.771 Y113.949 E0.13324
G1 X115.46 Y113.757 E0.16654
G1 X116.276 Y113.633 E0.20498
G1 X116.834 Y113.585 E0.23106
G1 X118.623 Y113.457 E0.31457
G1 X121.24 Y113.194 E0.43704
G1 X123.883 Y112.854 E0.56113
G1 X126.49 Y112.442 E0.68403
G1 X129.087 Y111.957 E0.80704
G1 X131.697 Y111.391 E0.9314
G1 X134.237 Y110.767 E1.05319
G1 X136.817 Y110.053 E1.17784
G1 X137.463 Y109.865 E1.20917
G1 X138.159 Y109.704 E1.24244
G1 X139.057 Y109.613 E1.28447
G1 X139.58 Y109.6 E1.30883
G1 X164.043 Y109.6 E2.44793
G1 X164.836 Y109.611 E2.48485
G1 X165.731 Y109.686 E2.52668
G1 X166.462 Y109.843 E2.56149
G1 X167.18 Y110.042 E2.59618
G1 X168.556 Y110.442 E2.66291
G1 X171.139 Y111.113 E2.78718
G1 X173.64 Y111.69 E2.90669
G1 X176.32 Y112.228 E3.03397
G1 X178.904 Y112.67 E3.15604
G1 X181.524 Y113.043 E3.27927
G1 X184.153 Y113.341 E3.40247
G1 X186.793 Y113.566 E3.52585
G1 X187.631 Y113.626 E3.56497
G1 X188.34 Y113.718 E3.59826
G1 X189.035 Y113.887 E3.63156
G1 X189.707 Y114.133 E3.66489
G1 X190.346 Y114.453 E3.69816
G1 X190.947 Y114.842 E3.7315
G1 X191.5 Y115.295 E3.76478
G1 X191.999 Y115.808 E3.79811
G1 X192.438 Y116.372 E3.83139
G1 X192.811 Y116.983 E3.86472
G1 X193.113 Y117.631 E3.89801
G1 X193.342 Y118.309 E3.93133
G1 X193.493 Y119.008 E3.96463
G1 X193.569 Y119.83 E4.00307
G1 X193.581 Y120.33 E4.02636
G1 X193.58 Y126.363 E4.30728
G1 X193.57 Y127.083 E4.34081
G1 X193.52 Y127.804 E4.37447
G1 X193.384 Y128.537 E4.40918
G1 X193.111 Y129.647 E4.46241
G1 X192.504 Y132.28 E4.58823
G1 X191.987 Y134.847 E4.71016
G1 X191.535 Y137.479 E4.83451
G1 X191.16 Y140.107 E4.95812
G1 X190.862 Y142.721 E5.08063
G1 X190.636 Y145.369 E5.20438
G1 X190.485 Y148.032 E5.32858
G1 X190.41 Y150.642 E5.45016
G1 X190.409 Y153.289 E5.57341
G1 X190.483 Y155.962 E5.69793
G1 X190.631 Y158.6 E5.82096
G1 X190.855 Y161.24 E5.94433
G1 X191.152 Y163.861 E6.06715
G1 X191.523 Y166.474 E6.19005
G1 X191.968 Y169.074 E6.31287
G1 X192.491 Y171.69 E6.4371
G1 X193.1 Y174.337 E6.56357
G1 X193.373 Y175.416 E6.6154
G1 X193.447 Y175.744 E6.63105
G1 X193.568 Y176.8 E6.68055
G1 X193.581 Y177.321 E6.70482
G1 X193.581 Y183.343 E6.98522
G1 X193.572 Y184.07 E7.01908
G1 X193.523 Y184.784 E7.0524
G1 X193.395 Y185.488 E7.08572
G1 X193.189 Y186.173 E7.11903
G1 X192.908 Y186.83 E7.1523
G1 X192.555 Y187.453 E7.18565
G1 X192.135 Y188.032 E7.21895
G1 X191.653 Y188.56 E7.25224
G1 X191.116 Y189.032 E7.28553
G1 X190.528 Y189.44 E7.31886
G1 X189.899 Y189.781 E7.35218
G1 X189.236 Y190.049 E7.38547
G1 X188.547 Y190.241 E7.41878
G1 X187.724 Y190.367 E7.45755
G1 X187.166 Y190.415 E7.48363
G1 X185.377 Y190.543 E7.56714
G1 X182.76 Y190.806 E7.68962
G1 X180.117 Y191.146 E7.8137
G1 X177.51 Y191.558 E7.9366
G1 X174.913 Y192.043 E8.05962
G1 X172.303 Y192.609 E8.18397
G1 X169.763 Y193.233 E8.30576
G1 X167.179 Y193.948 E8.43061
G1 X166.554 Y194.131 E8.46093
G1 X165.601 Y194.333 E8.50629
G1 X164.92 Y194.388 E8.53811
G1 X164.42 Y194.4 E8.5614
G1 X139.866 Y194.399 E9.70473
G1 X139.166 Y194.389 E9.73733
G1 X138.447 Y194.339 E9.77089
G1 X137.535 Y194.156 E9.8142
G1 X136.816 Y193.957 E9.84894
G1 X135.443 Y193.558 E9.91552
G1 X132.861 Y192.887 E10.03974
G1 X130.359 Y192.31 E10.1593
G1 X127.68 Y191.772 E10.28654
G1 X125.096 Y191.33 E10.40861
G1 X122.476 Y190.957 E10.53184
G1 X119.847 Y190.659 E10.65504
G1 X117.207 Y190.434 E10.77841
G1 X116.369 Y190.374 E10.81753
G1 X115.66 Y190.282 E10.85083
G1 X114.965 Y190.113 E10.88413
G1 X114.293 Y189.867 E10.91745
G1 X113.654 Y189.547 E10.95073
G1 X113.053 Y189.158 E10.98406
G1 X112.5 Y188.705 E11.01735
G1 X112.001 Y188.192 E11.05068
G1 X111.562 Y187.628 E11.08396
G1 X111.189 Y187.017 E11.11729
G1 X110.887 Y186.369 E11.15058
G1 X110.658 Y185.691 E11.1839
G1 X110.507 Y184.992 E11.2172
G1 X110.43 Y184.163 E11.25597
G1 X110.419 Y183.658 E11.27949
G1 X110.42 Y177.607 E11.56125
G1 X110.431 Y176.901 E11.59413
G1 X110.457 Y176.411 E11.61698
G1 X110.616 Y175.463 E11.66173
G1 X110.889 Y174.353 E11.71496
G1 X111.496 Y171.72 E11.84078
G1 X112.013 Y169.153 E11.96271
G1 X112.465 Y166.521 E12.08706
G1 X112.84 Y163.893 E12.21067
G1 X113.138 Y161.279 E12.33318
G1 X113.364 Y158.631 E12.45693
G1 X113.515 Y155.968 E12.58113
G1 X113.59 Y153.358 E12.70271
G1 X113.591 Y150.711 E12.82597
G1 X113.517 Y148.038 E12.95048
G1 X113.369 Y145.399 E13.07356
G1 X113.145 Y142.76 E13.19688
G1 X112.849 Y140.143 E13.31952
G1 X112.475 Y137.515 E13.44312
G1 X112.034 Y134.938 E13.56486
G1 X111.507 Y132.304 E13.68994
G1 X110.9 Y129.668 E13.8159
G1 X110.645 Y128.66 E13.86431
G1 X110.567 Y128.316 E13.88074
G1 X110.458 Y127.609 E13.91405
G1 X110.422 Y126.851 E13.94938
G1 X110.419 Y126.67 E13.95781
G1 X110.42 Y120.587 E14.24106
G1 X110.429 Y119.922 E14.27203
G1 X110.478 Y119.209 E14.30531
G1 X110.607 Y118.505 E14.33864
G1 X110.814 Y117.821 E14.37191
G1 X111.096 Y117.163 E14.40525
G1 X111.449 Y116.541 E14.43855
G1 X111.869 Y115.963 E14.47182
G1 X112.352 Y115.435 E14.50514
M204 S3000
M205 X10 Y10
G0 F3000 X112.899 Y115.688
M204 S1800
M205 X8 Y8
G1 F2400 X113.431 Y115.259 E14.53696
G1 X114.009 Y114.894 E14.56879
G1 X114.626 Y114.6 E14.60062
G1 X115.272 Y114.38 E14.6324
G1 X115.94 Y114.237 E14.66421
G1 X116.786 Y114.151 E14.7038
G1 X118.65 Y114.017 E14.79082
G1 X121.329 Y113.748 E14.91619
G1 X123.938 Y113.412 E15.03868
G1 X126.611 Y112.99 E15.16469
G1 X129.172 Y112.511 E15.28601
G1 X131.839 Y111.933 E15.41308
G1 X134.343 Y111.318 E15.53314
G1 X137.046 Y110.57 E15.66373
G1 X137.619 Y110.403 E15.69153
G1 X138.285 Y110.251 E15.72334
G1 X139.074 Y110.173 E15.76025
G1 X139.58 Y110.16 E15.78382
G1 X164.043 Y110.16 E16.92292
G1 X164.828 Y110.171 E16.95948
G1 X165.646 Y110.24 E16.9977
G1 X166.313 Y110.383 E17.02947
G1 X167.024 Y110.58 E17.06382
G1 X168.404 Y110.981 E17.13074
G1 X170.983 Y111.651 E17.25481
G1 X173.542 Y112.241 E17.3771
G1 X176.219 Y112.779 E17.50424
G1 X178.805 Y113.221 E17.6264
G1 X181.452 Y113.598 E17.7509
G1 X184.115 Y113.9 E17.8757
G1 X186.777 Y114.127 E18.0001
G1 X187.591 Y114.185 E18.0381
G1 X188.268 Y114.274 E18.0699
G1 X188.93 Y114.441 E18.10169
G1 X189.569 Y114.684 E18.13352
G1 X190.174 Y115.001 E18.16533
G1 X190.739 Y115.386 E18.19716
G1 X191.254 Y115.834 E18.22895
G1 X191.714 Y116.339 E18.26075
G1 X192.112 Y116.895 E18.29259
G1 X192.442 Y117.493 E18.3244
G1 X192.7 Y118.126 E18.35623
G1 X192.882 Y118.784 E18.38802
G1 X192.986 Y119.46 E18.41986
G1 X193.019 Y120.166 E18.45277
G1 X193.021 Y120.33 E18.46041
G1 X193.02 Y126.355 E18.74096
G1 X193.01 Y127.075 E18.77449
G1 X192.964 Y127.734 E18.80525
G1 X192.84 Y128.403 E18.83693
G1 X192.565 Y129.523 E18.89063
G1 X191.959 Y132.147 E19.01603
G1 X191.437 Y134.746 E19.13947
G1 X190.978 Y137.415 E19.26557
G1 X190.609 Y139.999 E19.38712
G1 X190.303 Y142.683 E19.51291
G1 X190.077 Y145.324 E19.63633
G1 X189.927 Y147.984 E19.76039
G1 X189.85 Y150.661 E19.88509
G1 X189.849 Y153.305 E20.00821
G1 X189.923 Y155.974 E20.13254
G1 X190.073 Y158.644 E20.25706
G1 X190.293 Y161.244 E20.37856
G1 X190.596 Y163.928 E20.50433
G1 X190.974 Y166.584 E20.62925
G1 X191.413 Y169.152 E20.75056
G1 X191.947 Y171.822 E20.87735
G1 X192.553 Y174.455 E21.00316
G1 X192.83 Y175.553 E21.05589
G1 X192.898 Y175.854 E21.07026
G1 X193.008 Y176.818 E21.11544
G1 X193.021 Y177.321 E21.13887
G1 X193.021 Y183.336 E21.41895
G1 X193.012 Y184.063 E21.4528
G1 X192.963 Y184.745 E21.48464
G1 X192.835 Y185.416 E21.51645
G1 X192.63 Y186.068 E21.54828
G1 X192.35 Y186.691 E21.58008
G1 X192 Y187.277 E21.61186
G1 X191.583 Y187.819 E21.64371
G1 X191.106 Y188.308 E21.67552
G1 X190.575 Y188.737 E21.7073
G1 X189.997 Y189.102 E21.73913
G1 X189.381 Y189.397 E21.77094
G1 X188.734 Y189.618 E21.80277
G1 X188.066 Y189.762 E21.83459
G1 X187.214 Y189.849 E21.87447
G1 X185.35 Y189.983 E21.96149
G1 X182.671 Y190.252 E22.08686
G1 X180.062 Y190.588 E22.20935
G1 X177.389 Y191.01 E22.33536
G1 X174.828 Y191.489 E22.45668
G1 X172.161 Y192.067 E22.58375
G1 X169.657 Y192.682 E22.70381
G1 X166.994 Y193.419 E22.83247
G1 X166.396 Y193.594 E22.86149
G1 X165.527 Y193.778 E22.90285
G1 X164.904 Y193.829 E22.93195
G1 X164.42 Y193.84 E22.9545
G1 X139.874 Y193.839 E24.09746
G1 X139.174 Y193.829 E24.13006
G1 X138.517 Y193.783 E24.16073
G1 X137.684 Y193.617 E24.20028
G1 X136.972 Y193.419 E24.23469
G1 X135.596 Y193.019 E24.30141
G1 X133.017 Y192.349 E24.42549
G1 X130.458 Y191.759 E24.54777
G1 X127.781 Y191.221 E24.67492
G1 X125.195 Y190.779 E24.79708
G1 X122.548 Y190.402 E24.92158
G1 X119.885 Y190.1 E25.04637
G1 X117.223 Y189.873 E25.17078
G1 X116.409 Y189.815 E25.20878
G1 X115.732 Y189.726 E25.24057
G1 X115.07 Y189.559 E25.27236
G1 X114.431 Y189.316 E25.3042
G1 X113.826 Y188.999 E25.336
G1 X113.261 Y188.614 E25.36784
G1 X112.746 Y188.166 E25.39962
G1 X112.286 Y187.661 E25.43143
G1 X111.888 Y187.105 E25.46327
G1 X111.558 Y186.507 E25.49507
G1 X111.3 Y185.874 E25.5269
G1 X111.118 Y185.216 E25.55869
G1 X111.014 Y184.54 E25.59054
G1 X110.981 Y183.816 E25.62429
G1 X110.979 Y183.658 E25.63164
G1 X110.98 Y177.616 E25.91299
G1 X110.991 Y176.91 E25.94586
G1 X111.015 Y176.461 E25.9668
G1 X111.16 Y175.597 E26.00759
G1 X111.435 Y174.477 E26.0613
G1 X112.041 Y171.853 E26.1867
G1 X112.563 Y169.254 E26.31013
G1 X113.022 Y166.585 E26.43624
G1 X113.391 Y164.001 E26.55778
G1 X113.697 Y161.317 E26.68357
G1 X113.923 Y158.676 E26.80699
G1 X114.073 Y156.016 E26.93105
G1 X114.15 Y153.339 E27.05575
G1 X114.151 Y150.695 E27.17887
G1 X114.077 Y148.026 E27.3032
G1 X113.927 Y145.358 E27.42763
G1 X113.703 Y142.719 E27.55095
G1 X113.404 Y140.071 E27.67504
G1 X113.026 Y137.416 E27.79991
G1 X112.585 Y134.837 E27.92174
G1 X112.052 Y132.171 E28.04834
G1 X111.446 Y129.541 E28.17401
G1 X111.188 Y128.522 E28.22296
G1 X111.115 Y128.2 E28.23833
G1 X111.013 Y127.524 E28.27017
G1 X110.981 Y126.835 E28.30229
G1 X110.979 Y126.67 E28.30997
G1 X110.98 Y120.595 E28.59285
G1 X110.989 Y119.93 E28.62381
G1 X111.038 Y119.249 E28.65561
G1 X111.166 Y118.577 E28.68746
G1 X111.372 Y117.926 E28.71926
G1 X111.653 Y117.303 E28.75108
G1 X112.004 Y116.717 E28.78289
G1 X112.422 Y116.176 E28.81472
G1 X112.899 Y115.688 E28.8465
M204 S3000
M205 X10 Y10
G0 F3000 X112.973 Y116.401
M204 S1800
M205 X8 Y8
G1 F2400 X113.445 Y115.955 E28.87673
G1 X113.968 Y115.571 E28.90695
G1 X114.535 Y115.253 E28.93722
G1 X115.136 Y115.007 E28.96746
G1 X115.763 Y114.837 E28.99771
G1 X116.373 Y114.749 E29.0264
G1 X116.914 Y114.702 E29.05169
G1 X118.745 Y114.571 E29.13717
G1 X121.352 Y114.309 E29.25917
G1 X124.057 Y113.961 E29.38617
G1 X126.663 Y113.549 E29.50902
G1 X129.324 Y113.052 E29.63507
G1 X131.904 Y112.493 E29.75799
G1 X134.522 Y111.849 E29.88353
G1 X137.195 Y111.11 E30.01267
G1 X137.776 Y110.941 E30.04084
G1 X138.409 Y110.798 E30.07106
G1 X139.091 Y110.732 E30.10296
G1 X139.58 Y110.72 E30.12574
G1 X164.118 Y110.721 E31.26833
G1 X164.82 Y110.731 E31.30102
G1 X165.561 Y110.793 E31.33565
G1 X166.164 Y110.923 E31.36437
G1 X166.867 Y111.117 E31.39833
G1 X168.274 Y111.526 E31.46656
G1 X170.86 Y112.198 E31.59097
G1 X173.419 Y112.788 E31.71326
G1 X176.117 Y113.33 E31.8414
G1 X178.735 Y113.778 E31.96507
G1 X181.383 Y114.154 E32.08961
G1 X184.035 Y114.455 E32.21389
G1 X186.773 Y114.688 E32.34185
G1 X187.55 Y114.744 E32.37812
G1 X188.194 Y114.83 E32.40838
G1 X188.823 Y114.995 E32.43866
G1 X189.426 Y115.235 E32.46888
G1 X189.995 Y115.548 E32.49911
G1 X190.522 Y115.929 E32.5294
G1 X190.998 Y116.371 E32.55964
G1 X191.416 Y116.868 E32.58988
G1 X191.769 Y117.413 E32.62012
G1 X192.053 Y117.997 E32.65036
G1 X192.264 Y118.612 E32.68063
G1 X192.397 Y119.248 E32.71089
G1 X192.45 Y119.862 E32.73958
G1 X192.461 Y120.33 E32.76138
G1 X192.46 Y126.347 E33.04156
G1 X192.45 Y127.067 E33.07509
G1 X192.408 Y127.665 E33.103
G1 X192.297 Y128.27 E33.13164
G1 X192.013 Y129.426 E33.18707
G1 X191.407 Y132.054 E33.31265
G1 X190.888 Y134.631 E33.43506
G1 X190.428 Y137.31 E33.56163
G1 X190.048 Y139.965 E33.68652
G1 X189.75 Y142.585 E33.8093
G1 X189.521 Y145.254 E33.93404
G1 X189.367 Y147.973 E34.06085
G1 X189.29 Y150.645 E34.18532
G1 X189.289 Y153.319 E34.30983
G1 X189.363 Y155.986 E34.43407
G1 X189.515 Y158.688 E34.56008
G1 X189.741 Y161.353 E34.68462
G1 X190.04 Y164.001 E34.80871
G1 X190.417 Y166.648 E34.93321
G1 X190.871 Y169.305 E35.05872
G1 X191.393 Y171.914 E35.18262
G1 X192.008 Y174.588 E35.31038
G1 X192.287 Y175.691 E35.36336
G1 X192.348 Y175.964 E35.37638
G1 X192.448 Y176.835 E35.41721
G1 X192.461 Y177.321 E35.43984
G1 X192.461 Y183.329 E35.7196
G1 X192.452 Y184.056 E35.75346
G1 X192.404 Y184.704 E35.78371
G1 X192.276 Y185.341 E35.81397
G1 X192.072 Y185.958 E35.84423
G1 X191.793 Y186.545 E35.87449
G1 X191.445 Y187.093 E35.90472
G1 X191.032 Y187.594 E35.93495
G1 X190.56 Y188.041 E35.96522
G1 X190.037 Y188.426 E35.99546
G1 X189.471 Y188.744 E36.02569
G1 X188.869 Y188.991 E36.05599
G1 X188.243 Y189.161 E36.0862
G1 X187.627 Y189.251 E36.11518
G1 X187.086 Y189.298 E36.14047
G1 X185.255 Y189.429 E36.22595
G1 X182.648 Y189.691 E36.34795
G1 X179.943 Y190.039 E36.47495
G1 X177.337 Y190.451 E36.5978
G1 X174.676 Y190.948 E36.72385
G1 X172.096 Y191.507 E36.84677
G1 X169.478 Y192.151 E36.97231
G1 X166.821 Y192.886 E37.10068
G1 X166.239 Y193.056 E37.12891
G1 X165.453 Y193.223 E37.16633
G1 X164.888 Y193.269 E37.19272
G1 X164.42 Y193.28 E37.21452
G1 X139.882 Y193.279 E38.35711
G1 X139.182 Y193.269 E38.38971
G1 X138.586 Y193.227 E38.41753
G1 X137.834 Y193.077 E38.45324
G1 X137.128 Y192.881 E38.48736
G1 X135.749 Y192.48 E38.55423
G1 X133.14 Y191.802 E38.67975
G1 X130.581 Y191.212 E38.80203
G1 X127.883 Y190.67 E38.93017
G1 X125.265 Y190.222 E39.05385
G1 X122.617 Y189.846 E39.17839
G1 X119.965 Y189.545 E39.30267
G1 X117.229 Y189.312 E39.43053
G1 X116.45 Y189.256 E39.4669
G1 X115.806 Y189.17 E39.49715
G1 X115.177 Y189.005 E39.52743
G1 X114.574 Y188.765 E39.55765
G1 X114.005 Y188.452 E39.58789
G1 X113.478 Y188.071 E39.61817
G1 X113.002 Y187.629 E39.64842
G1 X112.584 Y187.132 E39.67866
G1 X112.231 Y186.587 E39.70889
G1 X111.947 Y186.003 E39.73913
G1 X111.736 Y185.388 E39.76941
G1 X111.603 Y184.752 E39.79966
G1 X111.55 Y184.133 E39.82859
G1 X111.539 Y183.658 E39.85072
G1 X111.54 Y177.625 E40.13164
G1 X111.551 Y176.919 E40.16452
G1 X111.573 Y176.512 E40.1835
G1 X111.703 Y175.73 E40.22041
G1 X111.984 Y174.584 E40.27535
G1 X112.593 Y171.946 E40.40142
G1 X113.114 Y169.357 E40.52439
G1 X113.572 Y166.69 E40.65039
G1 X113.952 Y164.035 E40.77528
G1 X114.252 Y161.394 E40.89905
G1 X114.481 Y158.723 E41.02388
G1 X114.633 Y156.027 E41.14961
G1 X114.71 Y153.355 E41.27409
G1 X114.711 Y150.681 E41.3986
G1 X114.637 Y148.014 E41.52283
G1 X114.485 Y145.311 E41.64889
G1 X114.262 Y142.682 E41.77175
G1 X113.955 Y139.964 E41.89912
G1 X113.583 Y137.346 E42.02225
G1 X113.131 Y134.707 E42.14692
G1 X112.605 Y132.079 E42.27172
G1 X111.992 Y129.413 E42.3991
G1 X111.731 Y128.384 E42.44853
G1 X111.663 Y128.084 E42.46285
G1 X111.55 Y127.137 E42.50726
G1 X111.539 Y126.67 E42.52901
G1 X111.539 Y120.603 E42.81152
G1 X111.548 Y119.938 E42.84249
G1 X111.597 Y119.29 E42.87275
G1 X111.725 Y118.653 E42.903
G1 X111.93 Y118.036 E42.93327
G1 X112.21 Y117.45 E42.96352
G1 X112.559 Y116.902 E42.99377
G1 X112.973 Y116.401 E43.02403
M204 S3000
M205 X10 Y10
G1 F2400 E37.02403
;MESH:DockStand.stl
G0 F3000 X138.585 Y116.854
G0 X140.104 Y116.854
G0 X142.85 Y118.6
M204 S1800
M205 X8 Y8
;TYPE:WALL-INNER
G1 F2400 E43.02403
